X: 2
T:Blackthorne Stick
N: page 1
N: hexatonic
% Nottingham Music Database
S:Kevin Briggs, via EF
R: jig
M:6/8
K:G
d|"G"gfg ege|dBG AGE|DGG FGA|BGB "D"A2d|\
"G"gfg age|dBG AGE|DGG FGA|"D"BGF "G"G2:|
d|"G"edd gdd|edd gdd|ede gfg|"Em"edB "D"A2d|\
"G"gfg age|dBG AGE|DGG FGA|"D"BGG "G"G2:|
